storage/app/icons/phosphoricons/regular/intersect-square.svg

<svg xmlns="http://www.w3.org/2000/svg" fill="currentColor" viewBox="0 0 256 256"><path d="M216 88h-48V40a8 8 0 0 0-8-8H40a8 8 0 0 0-8 8v120a8 8 0 0 0 8 8h48v48a8 8 0 0 0 8 8h120a8 8 0 0 0 8-8V96a8 8 0 0 0-8-8M48 152V48h104v40H96a8 8 0 0 0-8 8v56Zm56-36.69L140.69 152H104Zm48 25.38L115.31 104H152ZM208 208H104v-40h56a8 8 0 0 0 8-8v-56h40Z"/></svg>

<svg xmlns="http://www.w3.org/2000/svg" viewBox="0 0 256 256" fill="currentColor"><path d="M216,88H168V40a8,8,0,0,0-8-8H40a8,8,0,0,0-8,8V160a8,8,0,0,0,8,8H88v48a8,8,0,0,0,8,8H216a8,8,0,0,0,8-8V96A8,8,0,0,0,216,88ZM48,152V48H152V88H96a8,8,0,0,0-8,8v56Zm56-36.69L140.69,152H104Zm48,25.38L115.31,104H152ZM208,208H104V168h56a8,8,0,0,0,8-8V104h40Z"/></svg>
